miniprogram/assets/figma/stat-coupon.svg

<svg width="16" height="16" viewBox="0 0 16 16" fill="none" xmlns="http://www.w3.org/2000/svg">
<path d="M10.3332 6.66667C10.3332 6.48257 10.1839 6.33333 9.99984 6.33333C9.81574 6.33333 9.6665 6.48257 9.6665 6.66667V9.33333C9.6665 9.51743 9.81574 9.66667 9.99984 9.66667C10.1839 9.66667 10.3332 9.51743 10.3332 9.33333V6.66667Z" fill="#353566"/>
<path fill-rule="evenodd" clip-rule="evenodd" d="M4.71821 2C4.07748 2 3.57618 2 3.1735 2.0329C2.7638 2.06637 2.42692 2.13556 2.12253 2.29065C1.62076 2.54631 1.21282 2.95426 0.957153 3.45603C0.802061 3.76041 0.732875 4.09729 0.699401 4.50699C0.666501 4.90967 0.666502 5.41097 0.666504 6.0517V6.17414C0.666504 6.34664 0.798115 6.49065 0.96992 6.50613C1.73409 6.57499 2.33317 7.21772 2.33317 8C2.33317 8.78228 1.73409 9.42501 0.96992 9.49387C0.798115 9.50935 0.666504 9.65336 0.666504 9.82586V9.9483C0.666502 10.589 0.6665 11.0903 0.699401 11.493C0.732875 11.9027 0.802061 12.2396 0.957153 12.544C1.21282 13.0457 1.62076 13.4537 2.12253 13.7094C2.42692 13.8644 2.7638 13.9336 3.1735 13.9671C3.57618 14 4.07747 14 4.7182 14H11.2815C11.9222 14 12.4235 14 12.8262 13.9671C13.2359 13.9336 13.5728 13.8644 13.8771 13.7094C14.3789 13.4537 14.7869 13.0457 15.0425 12.544C15.1976 12.2396 15.2668 11.9027 15.3003 11.493C15.3332 11.0903 15.3332 10.589 15.3332 9.94831V9.82586C15.3332 9.65336 15.2016 9.50935 15.0298 9.49387C14.2656 9.42501 13.6665 8.78228 13.6665 8C13.6665 7.21772 14.2656 6.57499 15.0298 6.50613C15.2016 6.49065 15.3332 6.34664 15.3332 6.17414V6.05169C15.3332 5.41097 15.3332 4.90967 15.3003 4.50699C15.2668 4.09729 15.1976 3.76041 15.0425 3.45603C14.7869 2.95426 14.3789 2.54631 13.8771 2.29065C13.5728 2.13556 13.2359 2.06637 12.8262 2.0329C12.4235 2 11.9222 2 11.2815 2H4.71821ZM9.6665 2.66667V4.33333C9.6665 4.51743 9.81574 4.66667 9.99984 4.66667C10.1839 4.66667 10.3332 4.51743 10.3332 4.33333V2.66667H11.2665C11.9254 2.66667 12.3995 2.66693 12.7719 2.69735C13.1404 2.72746 13.3797 2.78543 13.5745 2.88465C13.9508 3.0764 14.2568 3.38236 14.4485 3.75869C14.5477 3.95343 14.6057 4.19281 14.6358 4.56128C14.6635 4.89977 14.6662 5.32235 14.6665 5.89138C13.7108 6.11721 12.9998 6.97542 12.9998 8C12.9998 9.02458 13.7108 9.88279 14.6665 10.1086C14.6662 10.6776 14.6635 11.1002 14.6358 11.4387C14.6057 11.8072 14.5477 12.0466 14.4485 12.2413C14.2568 12.6176 13.9508 12.9236 13.5745 13.1153C13.3797 13.2146 13.1404 13.2725 12.7719 13.3027C12.3995 13.3331 11.9254 13.3333 11.2665 13.3333H10.3332V11.6667C10.3332 11.4826 10.1839 11.3333 9.99984 11.3333C9.81574 11.3333 9.6665 11.4826 9.6665 11.6667V13.3333H4.73317C4.07428 13.3333 3.60015 13.3331 3.22779 13.3027C2.85931 13.2725 2.61993 13.2146 2.42519 13.1153C2.04887 12.9236 1.7429 12.6176 1.55116 12.2413C1.45193 12.0466 1.39396 11.8072 1.36385 11.4387C1.3362 11.1002 1.33347 10.6776 1.3332 10.1086C2.28887 9.88279 2.99984 9.02458 2.99984 8C2.99984 6.97542 2.28887 6.11721 1.3332 5.89138C1.33347 5.32235 1.3362 4.89978 1.36385 4.56128C1.39396 4.19281 1.45193 3.95343 1.55116 3.75869C1.7429 3.38236 2.04887 3.0764 2.42519 2.88465C2.61993 2.78543 2.85931 2.72746 3.22779 2.69735C3.60015 2.66693 4.07428 2.66667 4.73317 2.66667H9.6665Z" fill="#353566"/>
</svg>

<svg xmlns="http://www.w3.org/2000/svg" width="16" height="16" fill="none" viewBox="0 0 16 16"><path fill="#353566" d="M10.333 6.667a.333.333 0 0 0-.667 0v2.666a.333.333 0 1 0 .667 0z"/><path fill="#353566" fill-rule="evenodd" d="M4.718 2c-.64 0-1.142 0-1.544.033-.41.033-.747.103-1.051.258-.502.255-.91.663-1.166 1.165C.802 3.76.733 4.097.7 4.507c-.032.403-.032.904-.032 1.545v.122c0 .173.131.317.303.332a1.5 1.5 0 0 1 0 2.988.333.333 0 0 0-.303.332v.122c0 .641 0 1.142.032 1.545.034.41.103.747.258 1.051.256.502.664.91 1.166 1.165.304.155.64.225 1.05.258.403.033.904.033 1.545.033h6.563c.641 0 1.143 0 1.545-.033.41-.033.747-.103 1.051-.258.502-.255.91-.663 1.165-1.165.156-.304.225-.641.258-1.051.033-.403.033-.904.033-1.545v-.122a.333.333 0 0 0-.303-.332 1.5 1.5 0 0 1 0-2.988.333.333 0 0 0 .303-.332v-.122c0-.641 0-1.142-.033-1.545-.033-.41-.102-.747-.258-1.051a2.67 2.67 0 0 0-1.165-1.165c-.304-.155-.641-.225-1.05-.258C12.423 2 11.921 2 11.28 2zm4.948.667v1.666a.333.333 0 1 0 .667 0V2.667h.934c.658 0 1.133 0 1.505.03.368.03.608.088.803.188a2 2 0 0 1 .874.874c.099.194.157.434.187.802.028.339.03.761.03 1.33a2.167 2.167 0 0 0 0 4.218c0 .569-.002.991-.03 1.33-.03.368-.088.608-.187.802a2 2 0 0 1-.874.874c-.195.1-.435.158-.803.188-.373.03-.847.03-1.505.03h-.934v-1.666a.333.333 0 0 0-.667 0v1.666H4.733c-.659 0-1.133 0-1.505-.03-.369-.03-.608-.088-.803-.188a2 2 0 0 1-.874-.874c-.1-.194-.157-.434-.187-.802a18 18 0 0 1-.03-1.33 2.167 2.167 0 0 0 0-4.218c0-.569.002-.991.03-1.33.03-.368.088-.608.187-.802a2 2 0 0 1 .874-.874c.195-.1.434-.158.803-.188.372-.03.846-.03 1.505-.03z" clip-rule="evenodd"/></svg>
